source/svgs/bowtie/uE01A-test-plan.svg

<svg xmlns="http://www.w3.org/2000/svg" viewBox="0 0 448 448" enable-background="new 0 0 448 448"><path d="M192 448h-102.656c-29.766 0-56.877-16.344-70.764-42.656-13.893-26.342-12.08-57.969 4.732-82.531l136.688-199.75v-91.063h-32v-32h192v32h-32v91.063l3.379 4.938h-35.379v-96.001h-64v100.938l-84.205 123.062h84.205v192zm256-288h-224v288h224v-288zm-192 32h160v224h-160v-224zm128 64h-96v-32h96v32zm0 64h-96v-32h96v32zm0 64h-96v-32h96v32z"/></svg>

<svg xmlns="http://www.w3.org/2000/svg" viewBox="0 0 448 448"><path d="M192 448H89.344c-29.766 0-56.877-16.344-70.764-42.656-13.893-26.342-12.08-57.969 4.732-82.531L160 123.063V32h-32V0h192v32h-32v91.063l3.379 4.938H256V32h-64v100.938L107.795 256H192v192zm256-288H224v288h224V160zm-192 32h160v224H256V192zm128 64h-96v-32h96v32zm0 64h-96v-32h96v32zm0 64h-96v-32h96v32z"/></svg>
